dist/images/title-icons/Icon material-slow-motion-video.svg

<svg width="30" height="30" viewBox="0 0 30 30" fill="none" xmlns="http://www.w3.org/2000/svg">
<path d="M16.5414 11.6662L11.9552 8.21402V21.782L16.5414 18.3298L20.9771 14.998L16.5414 11.6662ZM16.5414 11.6662L11.9552 8.21402V21.782L16.5414 18.3298L20.9771 14.998L16.5414 11.6662ZM16.5414 11.6662L11.9552 8.21402V21.782L16.5414 18.3298L20.9771 14.998L16.5414 11.6662ZM13.4586 3.04476V0C10.5212 0.295797 7.73731 1.45517 5.45829 3.33177L7.59383 5.48739C9.29193 4.15789 11.3188 3.31372 13.4586 3.04476ZM5.47334 7.6129L3.32374 5.47234C1.45039 7.76026 0.294158 10.5503 0 13.4927H3.03573C3.30357 11.3489 4.1458 9.31735 5.47334 7.6129ZM3.03573 16.5073H0C0.294158 19.4497 1.45039 22.2397 3.32374 24.5277L5.47434 22.372C4.14413 20.6748 3.30111 18.6474 3.03573 16.5073ZM5.45829 26.6682C7.73883 28.5423 10.5219 29.7013 13.4586 30V26.9552C11.3187 26.686 9.29182 25.8415 7.59383 24.5116L5.45829 26.6682ZM30 15C30.0009 18.7197 28.6273 22.3086 26.1432 25.0773C23.659 27.8459 20.2395 29.5991 16.5414 30V26.9552C19.4357 26.5655 22.0903 25.1391 24.0126 22.9406C25.9349 20.7421 26.9944 17.9209 26.9944 15.0005C26.9944 12.0801 25.9349 9.2589 24.0126 7.06041C22.0903 4.86192 19.4357 3.43546 16.5414 3.04576V0C20.2395 0.400902 23.659 2.15406 26.1432 4.92272C28.6273 7.69138 30.0009 11.2803 30 15Z" fill="#2D2E33"/>
</svg>

<svg width="30" height="30" fill="none" xmlns="http://www.w3.org/2000/svg"><path d="m16.541 11.666-4.586-3.452v13.568l4.586-3.452 4.436-3.332-4.436-3.332Zm0 0-4.586-3.452v13.568l4.586-3.452 4.436-3.332-4.436-3.332Zm0 0-4.586-3.452v13.568l4.586-3.452 4.436-3.332-4.436-3.332ZM13.46 3.045V0a14.94 14.94 0 0 0-8 3.332l2.135 2.155a11.926 11.926 0 0 1 5.865-2.442ZM5.473 7.613l-2.15-2.14A15.018 15.018 0 0 0 0 13.492h3.036a11.987 11.987 0 0 1 2.437-5.88Zm-2.437 8.894H0a15.018 15.018 0 0 0 3.324 8.02l2.15-2.155a11.876 11.876 0 0 1-2.438-5.865Zm2.422 10.161a14.99 14.99 0 0 0 8 3.332v-3.045a11.925 11.925 0 0 1-5.864-2.443l-2.136 2.156ZM30 15a15.085 15.085 0 0 1-13.459 15v-3.045a12.062 12.062 0 0 0 0-23.91V0A15.084 15.084 0 0 1 30 15Z" fill="#2D2E33"/></svg>
